packages/core/src/svgs/tokens/branded/DTX.svg

<svg width="24" height="24" viewBox="0 0 24 24" fill="none" xmlns="http://www.w3.org/2000/svg">
<path d="M20.8507 9.00135L16.7848 11.9925C16.7836 10.9777 16.4446 9.99234 15.8213 9.19157C14.2311 7.13379 11.2307 6.72224 9.12044 8.27335L2 13.5111L3.14933 14.9982L7.21467 12.0076C7.21628 13.0224 7.55542 14.0076 8.17867 14.8084C9.76887 16.8662 12.7693 17.2778 14.8796 15.7266L22 10.4889L20.8507 9.00135ZM13.7956 14.3235C13.3212 14.671 12.7561 14.8731 12.1689 14.9049C11.5812 14.9378 10.9965 14.7996 10.4858 14.5071C9.98012 14.2182 9.57176 13.7855 9.31244 13.264C9.05663 12.7475 8.96364 12.1656 9.04578 11.5951C9.12911 11.0227 9.38296 10.4887 9.77426 10.0627C10.1705 9.63113 10.6846 9.32519 11.2529 9.18268C11.8245 9.03869 12.4256 9.06308 12.9836 9.2529C13.5376 9.44046 14.0241 9.7868 14.3826 10.2489C14.6177 10.5515 14.7896 10.8984 14.8879 11.2687C14.9861 11.6392 15.0088 12.0256 14.9547 12.4049C14.8986 12.7857 14.7672 13.1515 14.5682 13.4809C14.3692 13.8103 14.1065 14.0968 13.7956 14.3235Z" fill="#78E6D0"/>
</svg>

<svg xmlns="http://www.w3.org/2000/svg" width="24" height="24" fill="none" viewBox="0 0 24 24">
    <path fill="#78E6D0" d="m20.85 9.001-4.065 2.992c-.001-1.015-.34-2-.964-2.801-1.59-2.058-4.59-2.47-6.7-.919L2 13.511l1.15 1.487 4.065-2.99c.001 1.014.34 2 .964 2.8 1.59 2.058 4.59 2.47 6.7.919L22 10.489zm-7.054 5.323a3.04 3.04 0 0 1-3.31.184 2.94 2.94 0 0 1-1.174-1.244 2.85 2.85 0 0 1-.266-1.669 2.9 2.9 0 0 1 .728-1.532c.397-.432.91-.738 1.479-.88a3.06 3.06 0 0 1 1.73.07 3 3 0 0 1 1.4.996 2.86 2.86 0 0 1 .572 2.156 2.9 2.9 0 0 1-1.16 1.918"/>
</svg>
